X: 19226
T: It Be To Be
R: jig
M: 6/8
K: Dmixolydian
|:DED GFG|AGA Bcd|DB,D G2F|EAG FED|
DB,D GBG|AGA Bcd|efg dcB|ABG FED:|
|:dBd g2g|ege dBG|def gfg|eag fed|
gbg faf|e/f/ge dBd|efg dcB|ABG FED:|

